brandFactory_export/2.Regular/Cinturon de seguridad _2Regular.svg

<?xml version="1.0" encoding="UTF-8"?>
<svg width="24px" height="24px" viewBox="0 0 24 24" version="1.1" xmlns="http://www.w3.org/2000/svg" xmlns:xlink="http://www.w3.org/1999/xlink">
    <title>2.Regular/Cinturon de seguridad _2Regular</title>
    <g id="Symbols" stroke="none" stroke-width="1" fill="none" fill-rule="evenodd">
        <g id="2.Regular/Cinturon-de-seguridad-_2Regular" fill="#5CB615" fill-rule="nonzero">
            <path d="M18.9176471,21.9092437 L21.8789916,18.9478992 L20.0302521,17.0991597 C19.912605,16.9815126 19.8386555,16.8235294 19.8218487,16.6554622 L19.6033613,14.410084 L17.2773109,12.0840336 L16.6151261,12.7462185 C16.4436975,12.9176471 16.2016807,12.9915966 15.9596639,12.9445378 C15.8218487,12.9176471 15.687395,12.8470588 15.5865546,12.7462185 L13.7378151,10.897479 L10.7764706,13.8588235 L12.6252101,15.707563 C12.907563,15.989916 12.907563,16.4504202 12.6252101,16.7327731 L11.9596639,17.3983193 L14.2756303,19.7142857 L16.594958,19.8487395 C16.7731092,19.8588235 16.9378151,19.9361345 17.0621849,20.0605042 L18.9176471,21.9092437 L18.9176471,21.9092437 Z M23.4117647,18.4369748 C23.5495798,18.5747899 23.6235294,18.7563025 23.6235294,18.9478992 C23.6235294,19.1394958 23.5462185,19.3243697 23.4117647,19.4588235 L19.4285714,23.4453782 C19.287395,23.5865546 19.102521,23.6571429 18.9176471,23.6571429 C18.7327731,23.6571429 18.5478992,23.5865546 18.4067227,23.4453782 L16.2420168,21.2806723 L13.9226891,21.1462185 C13.7445378,21.1361345 13.5798319,21.0588235 13.4521008,20.9344538 L10.4302521,17.912605 C10.1478992,17.6302521 10.1478992,17.1731092 10.4302521,16.8907563 L11.0957983,16.2252101 L9.24705882,14.3764706 C8.96470588,14.0941176 8.96470588,13.6369748 9.24705882,13.3546218 L13.2302521,9.37142857 C13.502521,9.09915966 13.9831933,9.09915966 14.2554622,9.37142857 L16.107563,11.2235294 L16.7697479,10.5613445 C17.0521008,10.2789916 17.5092437,10.2789916 17.794958,10.5613445 L20.8168067,13.5831933 C20.9344538,13.7008403 21.0084034,13.8588235 21.0252101,14.0235294 L21.2436975,16.2689076 L23.4117647,18.4369748 Z M10.6151261,6.57815126 L11.2806723,5.91260504 L9.14285714,3.77478992 L6.91428571,3.70756303 C6.72941176,3.70420168 6.55462185,3.62689076 6.42352941,3.49579832 L4.70588235,1.78151261 L1.74789916,4.74285714 L3.46218487,6.4605042 C3.58655462,6.58487395 3.6605042,6.74957983 3.67394958,6.92436975 L3.82184874,9.0789916 L5.9697479,11.2268908 L6.62857143,10.5680672 L10.5680672,6.63193277 C10.5815126,6.61176471 10.5983193,6.59495798 10.6151261,6.57815126 L10.6151261,6.57815126 Z M11.687395,7.55630252 C11.6739496,7.57310924 11.6571429,7.58991597 11.6403361,7.60672269 L6.48067227,12.7630252 C6.34621849,12.897479 6.16134454,12.9747899 5.9697479,12.9747899 C5.77815126,12.9747899 5.59327731,12.897479 5.45882353,12.7630252 L2.60504202,9.9092437 C2.48067227,9.78487395 2.40672269,9.62016807 2.39327731,9.44537815 L2.24537815,7.28739496 L0.211764706,5.25042017 C-0.0705882353,4.96806723 -0.0705882353,4.51092437 0.211764706,4.22521008 L4.19495798,0.242016807 C4.47731092,-0.0403361345 4.93445378,-0.0403361345 5.21680672,0.242016807 L7.24369748,2.26554622 L9.47226891,2.33277311 C9.65714286,2.3394958 9.83193277,2.41344538 9.96302521,2.54453782 L12.8168067,5.39831933 C12.9512605,5.53613445 13.0285714,5.71764706 13.0285714,5.9092437 C13.0285714,6.10084034 12.9512605,6.28571429 12.8168067,6.42016807 L11.687395,7.55630252 Z" id="Cinturon-de-seguridad-_2Regular"></path>
        </g>
    </g>
</svg>

<svg width="24" height="24" viewBox="0 0 24 24" xmlns="http://www.w3.org/2000/svg"><path d="M18.918 21.91l2.961-2.962-1.849-1.849a.732.732 0 01-.208-.444l-.219-2.245-2.326-2.326-.662.662a.724.724 0 01-.655.199.736.736 0 01-.373-.199l-1.85-1.849-2.96 2.962 1.848 1.849a.726.726 0 010 1.025l-.665.665 2.316 2.316 2.319.135c.178.01.343.087.467.212l1.856 1.848zm4.494-3.473c.138.138.212.32.212.51a.725.725 0 01-.212.512l-3.983 3.986a.72.72 0 01-1.022 0l-2.165-2.164-2.32-.135a.734.734 0 01-.47-.212l-3.022-3.021a.722.722 0 010-1.022l.666-.666-1.849-1.849a.722.722 0 010-1.021L13.23 9.37a.745.745 0 011.025 0l1.853 1.853.662-.663a.726.726 0 011.025 0l3.022 3.022a.732.732 0 01.208.44l.219 2.246 2.168 2.168zM10.615 6.578l.666-.665-2.138-2.138-2.229-.067a.713.713 0 01-.49-.212L4.706 1.782l-2.958 2.96 1.714 1.719c.125.124.199.289.212.463l.148 2.155 2.148 2.148.659-.659 3.94-3.936a.36.36 0 01.046-.054zm1.072.978a.645.645 0 01-.047.05l-5.16 5.157a.725.725 0 01-1.021 0L2.605 9.909a.734.734 0 01-.212-.464l-.148-2.158L.212 5.25a.726.726 0 010-1.025L4.195.242a.722.722 0 011.022 0l2.027 2.024 2.228.067c.185.006.36.08.491.212l2.854 2.853c.134.138.212.32.212.511a.725.725 0 01-.212.511l-1.13 1.136z" fill="#5CB615" fill-rule="nonzero"/></svg>
